assets/img/braze_icons/user-edit.svg

<svg fill="none" height="24" viewBox="0 0 24 24" width="24" xmlns="http://www.w3.org/2000/svg"><g clip-rule="evenodd" fill="#801ed7" fill-rule="evenodd"><path d="m18.0429 10.0429c1.0809-1.08089 2.8333-1.0809 3.9142 0 1.081 1.0808 1.081 2.8334 0 3.9143-2.1598 2.1598-4.3233 4.316-6.4795 6.4794-.0851.0855-.1924.1931-.3179.2853-.1091.0801-.2261.1489-.3491.2053-.1415.065-.2877.1065-.4037.1395-1.0446.2965-2.0881.5965-3.1322.8948-.3492.0998-.725.0024-.9818-.2544s-.35419-.6326-.2544-.9818c.2983-1.0441.5983-2.0876.8948-3.1322.033-.116.0745-.2622.1395-.4037.0564-.123.1252-.24.2053-.3491.0922-.1255.1998-.2328.2853-.3179 2.1635-2.1562 4.3197-4.3197 6.4795-6.4795z"/><path d="m6.60988 14.5101c.14522.0119.35321.0423.57116.1534.28224.1438.51171.3733.65552.6555.11105.218.14149.426.15336.5712.01024.1253.01018.2676.01014.3867-.00049 1.3154-.00049 2.6308 0 3.9462.00004.1192.0001.2614-.01014.3867-.01187.1453-.04231.3532-.15336.5712-.14381.2822-.37328.5117-.65552.6555-.21795.1111-.42594.1415-.57116.1534-.12532.0102-.26757.0102-.38669.0101-2.87739-.001-.75528-.0153-3.63262.0001-.07137.0004-.21482.0011-.35099-.0229-.62102-.1095-1.10724-.5957-1.21674-1.2167-.024011-.1362-.023247-.2796-.022867-.351.003147-.5909-.027035-1.1932.076037-1.7777.36501-2.0701 1.98574-3.6908 4.0558-4.0558.64684-.1141 1.21002-.0878 1.47807-.0659z"/><path d="m4.50005 7.5c0-3.03757 2.46243-5.5 5.50005-5.5 3.0375 0 5.5 2.46243 5.5 5.5 0 3.0376-2.4625 5.5-5.5 5.5-3.03762 0-5.50005-2.4624-5.50005-5.5z"/></g></svg>

<svg width="24" height="24" viewBox="0 0 24 24" fill="none" xmlns="http://www.w3.org/2000/svg">
<path fill-rule="evenodd" clip-rule="evenodd" d="M18.0429 10.0429C19.1238 8.96201 20.8762 8.962 21.9571 10.0429C23.0381 11.1237 23.0381 12.8763 21.9571 13.9572C19.7973 16.117 17.6338 18.2732 15.4776 20.4366C15.3925 20.5221 15.2852 20.6297 15.1597 20.7219C15.0506 20.802 14.9336 20.8708 14.8106 20.9272C14.6691 20.9922 14.5229 21.0337 14.4069 21.0667C13.3623 21.3632 12.3188 21.6632 11.2747 21.9615C10.9255 22.0613 10.5497 21.9639 10.2929 21.7071C10.0361 21.4503 9.93871 21.0745 10.0385 20.7253C10.3368 19.6812 10.6368 18.6377 10.9333 17.5931C10.9663 17.4771 11.0078 17.3309 11.0728 17.1894C11.1292 17.0664 11.198 16.9494 11.2781 16.8403C11.3703 16.7148 11.4779 16.6075 11.5634 16.5224C13.7269 14.3662 15.8831 12.2027 18.0429 10.0429Z" fill="#801ED7"/>
<path fill-rule="evenodd" clip-rule="evenodd" d="M6.60988 14.5101C6.7551 14.522 6.96309 14.5524 7.18104 14.6635C7.46328 14.8073 7.69275 15.0368 7.83656 15.319C7.94761 15.537 7.97805 15.745 7.98992 15.8902C8.00016 16.0155 8.0001 16.1578 8.00006 16.2769C7.99957 17.5923 7.99957 18.9077 8.00006 20.2231C8.0001 20.3423 8.00016 20.4845 7.98992 20.6098C7.97805 20.7551 7.94761 20.963 7.83656 21.181C7.69275 21.4632 7.46328 21.6927 7.18104 21.8365C6.96309 21.9476 6.7551 21.978 6.60988 21.9899C6.48456 22.0001 6.34231 22.0001 6.22319 22C3.3458 21.999 5.46791 21.9847 2.59057 22.0001C2.5192 22.0005 2.37575 22.0012 2.23958 21.9772C1.61856 21.8677 1.13234 21.3815 1.02284 20.7605C0.998829 20.6243 0.999593 20.4809 0.999973 20.4095C1.00312 19.8186 0.972938 19.2163 1.07601 18.6318C1.44102 16.5617 3.06175 14.941 5.13181 14.576C5.77865 14.4619 6.34183 14.4882 6.60988 14.5101Z" fill="#801ED7"/>
<path fill-rule="evenodd" clip-rule="evenodd" d="M4.50005 7.5C4.50005 4.46243 6.96248 2 10.0001 2C13.0376 2 15.5001 4.46243 15.5001 7.5C15.5001 10.5376 13.0376 13 10.0001 13C6.96248 13 4.50005 10.5376 4.50005 7.5Z" fill="#801ED7"/>
</svg>
